Origami/32x32/apps/ndm.svg

<svg width="32" height="32" version="1" xmlns="http://www.w3.org/2000/svg">
 <g transform="translate(-1 -.9990827)" style="opacity:.2">
  <path d="m10 5a4.0004 4.0004 0 0 0 -4 4v12a4.0004 4.0004 0 0 0 4 4h3a4.0004 4.0004 0 0 0 0.242188 -0.01172l4.058593 5.41211a4.0004 4.0004 0 0 0 6.398438 0l4.5-6a4.0004 4.0004 0 0 0 -2.199219 -6.267578v-1.12304a4.0004 4.0004 0 0 0 0 -2e-3c0.00868-4.107496-1.844374-7.9648564-5.261719-9.695272-1.817384-0.9202422-3.488054-1.1592146-5.019531-1.2421875a4.0004 4.0004 0 0 0 -2.71875 -1.0703125z"/>
 </g>
 <g transform="translate(-1,-1.9990827)">
  <path d="m10 5a4.0004 4.0004 0 0 0 -4 4v12a4.0004 4.0004 0 0 0 4 4h3a4.0004 4.0004 0 0 0 0.242188 -0.01172l4.058593 5.41211a4.0004 4.0004 0 0 0 6.398438 0l4.5-6a4.0004 4.0004 0 0 0 -2.199219 -6.267578v-1.12304a4.0004 4.0004 0 0 0 0 -2e-3c0.00868-4.107496-1.844374-7.9648564-5.261719-9.695272-1.817384-0.9202422-3.488054-1.1592146-5.019531-1.2421875a4.0004 4.0004 0 0 0 -2.71875 -1.0703125z" style="fill:#e14343"/>
 </g>
 <path d="m9 8.0009173v12h3v-8c1.988376 0.0012 3.678926 0.102309 4.576172 0.556641 0.897246 0.454331 1.42976 1.054621 1.423828 3.439453l1.5 0.0039h-1.5v5h-3l4.5 6 4.5-6h-3v-4.996094c3e-6 -0.0013-3e-6 -0.0026 0-0.0039 0.0064-3.031848-1.212055-5.179172-3.068359-6.1191347-1.857131-0.940374-3.924045-0.879696-5.931641-0.880865v-1z" style="opacity:.2"/>
 <path d="m9 7.0009173v12h3v-8c1.988376 0.0012 3.678926 0.102309 4.576172 0.556641 0.897246 0.454331 1.42976 1.054621 1.423828 3.439453l1.5 0.0039h-1.5v5h-3l4.5 6 4.5-6h-3v-4.996094c3e-6 -0.0013-3e-6 -0.0026 0-0.0039 0.0064-3.031848-1.212055-5.1791717-3.068359-6.1191347-1.857131-0.9403743-3.924045-0.879696-5.931641-0.880865v-1z" style="fill:#ffffff"/>
 <g transform="translate(-1,-1.9990827)" style="fill:#ffffff;opacity:.2">
  <path transform="translate(1,1.9990827)" d="m9 3a4.0004 4.0004 0 0 0 -4 4v1a4.0004 4.0004 0 0 1 4 -4h3a4.0004 4.0004 0 0 1 2.71875 1.0703125c1.531477 0.0829729 3.202147 0.3219453 5.019531 1.2421875 3.417345 1.7304156 5.270399 5.587816 5.261719 9.695312v-0.99414-0.003906a4.0004 4.0004 0 0 0 0 -0.001954c0.00868-4.107495-1.844374-7.9648964-5.261719-9.695312-1.817384-0.9202422-3.488054-1.1592146-5.019531-1.2421875a4.0004 4.0004 0 0 0 -2.71875 -1.0703125h-3zm16 13.132812v1a4.0004 4.0004 0 0 1 2.960938 3.382813 4.0004 4.0004 0 0 0 -2.960938 -4.382813z" style="fill:#ffffff"/>
 </g>
</svg>

<svg xmlns="http://www.w3.org/2000/svg" width="32" height="32" version="1">
 <g style="opacity:0.2" transform="translate(-1,-0.9990827)">
  <path d="M 10,5 A 4.0004,4.0004 0 0 0 6,9 v 12 a 4.0004,4.0004 0 0 0 4,4 h 3 a 4.0004,4.0004 0 0 0 0.242188,-0.01172 l 4.058593,5.41211 a 4.0004,4.0004 0 0 0 6.398438,0 l 4.5,-6 A 4.0004,4.0004 0 0 0 26,18.132812 v -1.11914 -0.0039 a 4.0004,4.0004 0 0 0 0,-0.002 C 26.00868,12.900276 24.155626,9.0429156 20.738281,7.3125 18.920897,6.3922578 17.250227,6.1532854 15.71875,6.0703125 A 4.0004,4.0004 0 0 0 13,5 Z"/>
 </g>
 <g transform="translate(-1,-1.9990827)">
  <path style="fill:#e14343" d="M 10,5 A 4.0004,4.0004 0 0 0 6,9 v 12 a 4.0004,4.0004 0 0 0 4,4 h 3 a 4.0004,4.0004 0 0 0 0.242188,-0.01172 l 4.058593,5.41211 a 4.0004,4.0004 0 0 0 6.398438,0 l 4.5,-6 A 4.0004,4.0004 0 0 0 26,18.132812 v -1.11914 -0.0039 a 4.0004,4.0004 0 0 0 0,-0.002 C 26.00868,12.900276 24.155626,9.0429156 20.738281,7.3125 18.920897,6.3922578 17.250227,6.1532854 15.71875,6.0703125 A 4.0004,4.0004 0 0 0 13,5 Z"/>
 </g>
 <path style="opacity:0.2" d="M 9,8.0009173 V 20.000917 h 3 v -8 c 1.988376,0.0012 3.678926,0.102309 4.576172,0.556641 0.897246,0.454331 1.42976,1.054621 1.423828,3.439453 l 1.5,0.0039 H 18 v 5 h -3 l 4.5,6 4.5,-6 h -3 v -4.996094 c 3e-6,-0.0013 -3e-6,-0.0026 0,-0.0039 C 21.0064,12.969069 19.787945,10.821745 17.931641,9.8817823 16.07451,8.9414083 14.007596,9.0020863 12,9.0009173 v -1 z"/>
 <path style="fill:#ffffff" d="M 9,7.0009173 V 19.000917 h 3 v -8 c 1.988376,0.0012 3.678926,0.102309 4.576172,0.556641 0.897246,0.454331 1.42976,1.054621 1.423828,3.439453 l 1.5,0.0039 H 18 v 5 h -3 l 4.5,6 4.5,-6 h -3 v -4.996094 c 3e-6,-0.0013 -3e-6,-0.0026 0,-0.0039 C 21.0064,11.969069 19.787945,9.8217453 17.931641,8.8817823 16.07451,7.941408 14.007596,8.0020863 12,8.0009173 v -1 z"/>
 <g style="fill:#ffffff;opacity:0.2" transform="translate(-1,-1.9990827)">
  <path style="fill:#ffffff" d="M 9 3 A 4.0004 4.0004 0 0 0 5 7 L 5 8 A 4.0004 4.0004 0 0 1 9 4 L 12 4 A 4.0004 4.0004 0 0 1 14.71875 5.0703125 C 16.250227 5.1532854 17.920897 5.3922578 19.738281 6.3125 C 23.155626 8.0429156 25.00868 11.900316 25 16.007812 L 25 15.013672 L 25 15.009766 A 4.0004 4.0004 0 0 0 25 15.007812 C 25.00868 10.900317 23.155626 7.0429156 19.738281 5.3125 C 17.920897 4.3922578 16.250227 4.1532854 14.71875 4.0703125 A 4.0004 4.0004 0 0 0 12 3 L 9 3 z M 25 16.132812 L 25 17.132812 A 4.0004 4.0004 0 0 1 27.960938 20.515625 A 4.0004 4.0004 0 0 0 25 16.132812 z" transform="translate(1,1.9990827)"/>
 </g>
</svg>
